components/ui-node-icon/src/gptNode/gptNode.large.svg

<svg width="32" height="32" viewBox="0 0 32 32" fill="none" xmlns="http://www.w3.org/2000/svg">
  <path fill-rule="evenodd" clip-rule="evenodd" d="M28 7C28 5.34315 26.6569 4 25 4H6C4.34315 4 3 5.34314 3 7V23C3 24.6569 4.34314 26 6 26L19.0073 26C18.7064 25.3471 18.2904 24.7459 17.7722 24.2278C16.6202 23.0758 15.0578 22.4286 13.4286 22.4286C12.7845 22.4286 12.1668 22.1727 11.7113 21.7173C11.2559 21.2618 11 20.6441 11 20C11 19.3559 11.2559 18.7382 11.7113 18.2827C12.1668 17.8273 12.7845 17.5714 13.4286 17.5714C15.0578 17.5714 16.6202 16.9242 17.7722 15.7722C18.9242 14.6202 19.5714 13.0578 19.5714 11.4286C19.5714 10.7845 19.8273 10.1668 20.2827 9.71131C20.7382 9.25587 21.3559 9 22 9C22.6441 9 23.2618 9.25587 23.7173 9.71131C24.1727 10.1668 24.4286 10.7845 24.4286 11.4286C24.4286 13.0578 25.0758 14.6202 26.2278 15.7722C26.7459 16.2904 27.3471 16.7064 28 17.0073L28 7ZM28 18.0925V21.9075C27.0788 22.263 26.2324 22.809 25.5207 23.5207C24.809 24.2324 24.263 25.0788 23.9075 26H20.0925C19.737 25.0788 19.191 24.2324 18.4793 23.5207C17.1398 22.1811 15.323 21.4286 13.4286 21.4286C13.0497 21.4286 12.6863 21.2781 12.4184 21.0102C12.1505 20.7422 12 20.3789 12 20C12 19.6211 12.1505 19.2578 12.4184 18.9898C12.6863 18.7219 13.0497 18.5714 13.4286 18.5714C15.323 18.5714 17.1398 17.8189 18.4793 16.4793C19.8189 15.1398 20.5714 13.323 20.5714 11.4286C20.5714 11.0497 20.7219 10.6863 20.9898 10.4184C21.2578 10.1505 21.6211 10 22 10C22.3789 10 22.7422 10.1505 23.0102 10.4184C23.2781 10.6863 23.4286 11.0497 23.4286 11.4286C23.4286 13.323 24.1811 15.1398 25.5207 16.4793C26.2324 17.191 27.0788 17.737 28 18.0925ZM24.9927 26C25.2936 25.3471 25.7096 24.7459 26.2278 24.2278C26.7459 23.7096 27.3471 23.2936 28 22.9927V23C28 24.6569 26.6569 26 25 26H24.9927Z" fill="url(#paint0_linear_2833_1299)"/>
  <path fill-rule="evenodd" clip-rule="evenodd" d="M6 3C4.34315 3 3 4.34315 3 6V7H28V6C28 4.34315 26.6569 3 25 3H6ZM31.5816 21.0102C31.8495 20.7422 32 20.3789 32 20C32 19.6211 31.8495 19.2578 31.5816 18.9898C31.3137 18.7219 30.9503 18.5714 30.5714 18.5714C28.677 18.5714 26.8602 17.8189 25.5207 16.4793C24.1811 15.1398 23.4286 13.323 23.4286 11.4286C23.4286 11.0497 23.2781 10.6863 23.0102 10.4184C22.7422 10.1505 22.3789 10 22 10C21.6211 10 21.2578 10.1505 20.9898 10.4184C20.7219 10.6863 20.5714 11.0497 20.5714 11.4286C20.5714 13.323 19.8189 15.1398 18.4793 16.4793C17.1398 17.8189 15.323 18.5714 13.4286 18.5714C13.0497 18.5714 12.6863 18.7219 12.4184 18.9898C12.1505 19.2578 12 19.6211 12 20C12 20.3789 12.1505 20.7422 12.4184 21.0102C12.6863 21.2781 13.0497 21.4286 13.4286 21.4286C15.323 21.4286 17.1398 22.1811 18.4793 23.5207C19.8189 24.8602 20.5714 26.677 20.5714 28.5714C20.5714 28.9503 20.7219 29.3137 20.9898 29.5816C21.2578 29.8495 21.6211 30 22 30C22.3789 30 22.7422 29.8495 23.0102 29.5816C23.2781 29.3137 23.4286 28.9503 23.4286 28.5714C23.4286 26.677 24.1811 24.8602 25.5207 23.5207C26.8602 22.1811 28.677 21.4286 30.5714 21.4286C30.9503 21.4286 31.3137 21.2781 31.5816 21.0102Z" fill="url(#paint1_linear_2833_1299)"/>
  <defs>
    <linearGradient id="paint0_linear_2833_1299" x1="15.5" y1="4" x2="15.5" y2="26" gradientUnits="userSpaceOnUse">
      <stop stop-color="var(--tbl--colors--icons--ai--secondary--from)"/>
      <stop offset="1" stop-color="var(--tbl--colors--icons--ai--secondary--to)"/>
    </linearGradient>
    <linearGradient id="paint1_linear_2833_1299" x1="17.5" y1="3" x2="17.5" y2="30" gradientUnits="userSpaceOnUse">
      <stop stop-color="var(--tbl--colors--icons--ai--primary--from)"/>
      <stop offset="1" stop-color="var(--tbl--colors--icons--ai--primary--to)"/>
    </linearGradient>
  </defs>
</svg>

<svg xmlns="http://www.w3.org/2000/svg" width="32" height="32" fill="none" viewBox="0 0 32 32">
  <path fill="url(#a)" fill-rule="evenodd" d="M28 7a3 3 0 0 0-3-3H6a3 3 0 0 0-3 3v16a3 3 0 0 0 3 3h13.007a6.139 6.139 0 0 0-5.578-3.571 2.429 2.429 0 0 1 0-4.858 6.143 6.143 0 0 0 6.142-6.142 2.429 2.429 0 0 1 4.858 0A6.143 6.143 0 0 0 28 17.007V7Zm0 11.093v3.814A7.142 7.142 0 0 0 23.907 26h-3.814a7.142 7.142 0 0 0-6.664-4.571 1.429 1.429 0 1 1 0-2.858 7.142 7.142 0 0 0 7.142-7.142 1.429 1.429 0 1 1 2.858 0A7.142 7.142 0 0 0 28 18.093ZM24.993 26A6.139 6.139 0 0 1 28 22.993V23a3 3 0 0 1-3 3h-.007Z" clip-rule="evenodd"/>
  <path fill="url(#b)" fill-rule="evenodd" d="M6 3a3 3 0 0 0-3 3v1h25V6a3 3 0 0 0-3-3H6Zm25.582 18.01a1.429 1.429 0 0 0-1.01-2.439 7.142 7.142 0 0 1-7.143-7.142 1.429 1.429 0 1 0-2.858 0 7.142 7.142 0 0 1-7.142 7.142 1.429 1.429 0 1 0 0 2.858 7.142 7.142 0 0 1 7.142 7.142 1.429 1.429 0 1 0 2.858 0 7.142 7.142 0 0 1 7.142-7.142c.38 0 .743-.15 1.01-.419Z" clip-rule="evenodd"/>
  <defs>
    <linearGradient id="a" x1="15.5" x2="15.5" y1="4" y2="26" gradientUnits="userSpaceOnUse">
      <stop stop-color="var(--tbl--colors--icons--ai--secondary--from)"/>
      <stop offset="1" stop-color="var(--tbl--colors--icons--ai--secondary--to)"/>
    </linearGradient>
    <linearGradient id="b" x1="17.5" x2="17.5" y1="3" y2="30" gradientUnits="userSpaceOnUse">
      <stop stop-color="var(--tbl--colors--icons--ai--primary--from)"/>
      <stop offset="1" stop-color="var(--tbl--colors--icons--ai--primary--to)"/>
    </linearGradient>
  </defs>
</svg>
